Newaita-dark/apps/24/com.github.philip-scott.wallpaperize.svg

<svg height="24" viewBox="0 0 24 24" width="24" xmlns="http://www.w3.org/2000/svg" xmlns:xlink="http://www.w3.org/1999/xlink"><linearGradient id="a" gradientUnits="userSpaceOnUse" x1="11.90739" x2="11.90739" y1="21.02545025" y2="22.01773325002"><stop offset="0" stop-opacity=".27451"/><stop offset="1" stop-opacity="0"/></linearGradient><linearGradient id="b"><stop offset="0" stop-opacity=".313726"/><stop offset=".222222" stop-opacity=".27451"/><stop offset="1" stop-opacity="0"/></linearGradient><radialGradient id="c" cx="450.908936" cy="189.579361" gradientTransform="matrix(.00000013 -.0585994 -.105479 -.00000008 40.090268 47.696498)" gradientUnits="userSpaceOnUse" r="21.166656" xlink:href="#b"/><radialGradient id="d" cx="450.908936" cy="189.579361" gradientTransform="matrix(-.00000013 .0585994 .105479 .00000008 -16.275496 -5.645611)" gradientUnits="userSpaceOnUse" r="21.166656" xlink:href="#b"/><radialGradient id="e" cx="450.908936" cy="189.579361" gradientTransform="matrix(-.00000013 -.0585994 .105479 -.00000008 -16.275496 47.696498)" gradientUnits="userSpaceOnUse" r="21.166656" xlink:href="#b"/><radialGradient id="f" cx="450.908936" cy="189.579361" gradientTransform="matrix(.00000013 .0585994 -.105479 .00000008 40.090267 -5.645611)" gradientUnits="userSpaceOnUse" r="21.166656" xlink:href="#b"/><linearGradient id="g" gradientTransform="matrix(.0565122 0 0 .163059 -4.39051 25.231011)" gradientUnits="userSpaceOnUse" x1="306.916656" x2="305.954559" y1="-25.791676" y2="-135.329163"><stop offset="0" stop-color="#f48fb1"/><stop offset="1" stop-color="#9fa8da"/></linearGradient><linearGradient id="h" gradientUnits="userSpaceOnUse" x1="12.045905" x2="12.045905" y1="21.18327556504" y2="4.9222508458"><stop offset="0" stop-color="#424242"/><stop offset="1" stop-color="#757575"/></linearGradient><linearGradient id="i" gradientUnits="userSpaceOnUse" x1="15.87651254243" x2="14.88423106096" y1="9.11805854073" y2="6.14121255503"><stop offset="0" stop-color="#ffe0b2"/><stop offset="1" stop-color="#fff3e0"/></linearGradient><linearGradient id="j" gradientUnits="userSpaceOnUse" x1="12.045905" x2="12.045905" y1="21.18327556504" y2="4.9222508458"><stop offset="0" stop-color="#9fa8da"/><stop offset="1" stop-color="#c5cae9"/></linearGradient><linearGradient id="k" gradientUnits="userSpaceOnUse" x1="11.90736" x2="11.90736" y1="21.02539814717" y2="3.16435757661"><stop offset="0" stop-color="#bdbdbd"/><stop offset="1" stop-color="#e0e0e0"/></linearGradient><path d="m3.472656 21.027344h16.867188v.992187h-16.867188zm0 0" fill="url(#a)"/><path d="m20.339844 21.027344h1.988281v-.996094h-1.988281zm0 0" fill="url(#c)"/><path d="m3.472656 21.027344h-1.984375v.992187h1.984375zm0 0" fill="url(#d)"/><path d="m3.472656 21.027344h-1.984375v-.996094h1.984375zm0 0" fill="url(#e)"/><path d="m20.339844 21.027344h1.988281v.992187h-1.988281zm0 0" fill="url(#f)"/><path d="m2.480469 3.164062h18.855469c.546874 0 .992187.445313.992187.992188v15.875c0 .550781-.445313.996094-.992187.996094h-18.855469c-.546875 0-.992188-.445313-.992188-.996094v-15.875c0-.546875.445313-.992188.992188-.992188zm0 0" fill="url(#g)"/><path d="m7.035156 9.304688c-.164062.003906-.316406.066406-.429687.183593l-5.117188 5.113281v5.429688c0 .550781.441407.996094.992188.996094h18.855469c.546874 0 .992187-.445313.992187-.996094v-5.480469l-3.617187-3.210937c-.257813-.230469-.652344-.207032-.878907.054687l-3.941406 4.503907-6.410156-6.410157c-.117188-.121093-.28125-.183593-.445313-.183593zm0 0" fill="url(#h)"/><path d="m2.480469 21.035156c-.550781 0-.992188-.441406-.992188-.992187v-.257813c0 .550782.441407.992188.992188.992188h18.855469c.546874 0 .992187-.441406.992187-.992188v.257813c0 .550781-.445313.992187-.992187.992187zm0 0" fill-opacity=".235294"/><path d="m2.480469 3.222656c-.550781 0-.992188.441406-.992188.992188v.117187c0-.550781.441407-.992187.992188-.992187h18.855469c.546874 0 .992187.441406.992187.992187v-.117187c0-.550782-.445313-.992188-.992187-.992188zm0 0" fill="#fff" fill-opacity=".392157"/><path d="m16.558594 5.992188c-.601563 0-1.125.3125-1.421875.785156.199219-.089844.417969-.140625.652343-.140625.871094 0 1.574219.703125 1.574219 1.578125 0 .417968-.160156.800781-.425781 1.082031.742188-.171875 1.296875-.835937 1.296875-1.632813 0-.925781-.75-1.671874-1.675781-1.671874zm0 0" fill="url(#i)"/><path d="m2.480469 3.164062c-.550781 0-.992188.441407-.992188.992188v6.148438c4.8125-1.386719 10.398438-2.179688 16.371094-2.179688 1.515625 0 3.007813.050781 4.46875.152344v-4.121094c0-.550781-.445313-.992188-.992187-.992188zm0 0" fill="#fff" fill-opacity=".117647"/><path d="m7.035156 9.304688c-.164062.003906-.316406.066406-.429687.183593l-2.441407 2.4375.691407.8125c.3125.316407 1.21875.332031 2.1875-.3125.621093-.613281 1.363281-.558593 1.875 0 .730469.675781 1.386719.628907 2.128906.628907l-3.566406-3.566407c-.117188-.121093-.28125-.183593-.445313-.183593zm11.257813 1.875c-.171875.003906-.339844.074218-.460938.214843l-1.449219 1.660157h.042969c.105469.234374.15625 1.09375.625.625.800781-.800782.9375-.46875 1.25-.15625.46875.46875.78125.9375 1.25.78125.78125-.3125.917969-1.085938.570313-1.714844l-1.410156-1.25c-.121094-.109375-.269532-.160156-.417969-.160156zm0 0" fill="url(#j)"/><path d="m2.480469 3.164062c-.550781 0-.992188.441407-.992188.992188v15.875c0 .550781.441407.996094.992188.996094h18.855469c.546874 0 .992187-.445313.992187-.996094v-15.875c0-.550781-.445313-.992188-.992187-.992188zm.371093.992188h18.109376c.207031 0 .375.167969.375.371094v15.132812c0 .207032-.167969.371094-.375.371094h-18.109376c-.203124 0-.371093-.164062-.371093-.371094v-15.132812c0-.203125.167969-.371094.371093-.371094zm0 0" fill="url(#k)"/><path d="m2.480469 3.164062c-.550781 0-.992188.441407-.992188.992188v.191406c0-.550781.441407-.992187.992188-.992187h18.855469c.546874 0 .992187.441406.992187.992187v-.191406c0-.550781-.445313-.992188-.992187-.992188zm0 16.496094v.191406c0 .207032.167969.371094.371093.371094h18.109376c.207031 0 .375-.164062.375-.371094v-.191406c0 .207032-.167969.371094-.375.371094h-18.109376c-.203124 0-.371093-.164062-.371093-.371094zm0 0" fill="#fff" fill-opacity=".588235"/><path d="m2.851562 4.164062c-.203124 0-.371093.164063-.371093.371094v.179688c0-.207032.167969-.371094.371093-.371094h18.109376c.207031 0 .375.164062.375.371094v-.179688c0-.207031-.167969-.371094-.375-.371094zm-1.363281 15.691407v.175781c0 .550781.441407.996094.992188.996094h18.855469c.546874 0 .992187-.445313.992187-.996094v-.175781c0 .546875-.445313.992187-.992187.992187h-18.855469c-.550781 0-.992188-.445312-.992188-.992187zm0 0" fill-opacity=".235294"/><path d="m199.980913 255.093763c-44.40521 0-79.992365 35.587155-79.992365 79.992366v1279.877845c0 44.40521 35.587155 80.307296 79.992365 80.307296h1520.169872c44.09028 0 79.992365-35.902086 79.992365-80.307296v-1279.877845c0-44.405211-35.902085-79.992366-79.992365-79.992366zm29.918405 79.992366h1460.018132c16.69132 0 30.233335 13.542014 30.233335 29.918404v1220.041036c0 16.691321-13.542015 29.918405-30.233335 29.918405h-1460.018132c-16.37639 0-29.918405-13.227084-29.918405-29.918405v-1220.041036c0-16.37639 13.542015-29.918404 29.918405-29.918404zm0 0" fill="none" stroke="#212121" stroke-linecap="round" stroke-width="11.338583" transform="scale(.0124035)"/><path d="m3.96875 5.148438c-.273438 0-.496094.222656-.496094.496093v1.984375c0 .136719.109375.25.25.25.136719 0 .246094-.113281.246094-.25v-1.734375c0-.140625.109375-.25.25-.25h1.238281c.136719 0 .25-.109375.25-.246093 0-.140626-.113281-.25-.25-.25zm2.480469 0c-.136719 0-.246094.109374-.246094.25 0 .136718.109375.246093.246094.246093h.992187c.136719 0 .25-.109375.25-.246093 0-.140626-.113281-.25-.25-.25zm1.984375 0c-.136719 0-.246094.109374-.246094.25 0 .136718.109375.246093.246094.246093h.992187c.136719 0 .25-.109375.25-.246093 0-.140626-.113281-.25-.25-.25zm1.984375 0c-.136719 0-.246094.109374-.246094.25 0 .136718.109375.246093.246094.246093h.992187c.136719 0 .25-.109375.25-.246093 0-.140626-.113281-.25-.25-.25zm1.984375 0c-.136719 0-.246094.109374-.246094.25 0 .136718.109375.246093.246094.246093h.992187c.140625 0 .25-.109375.25-.246093 0-.140626-.109375-.25-.25-.25zm1.984375 0c-.136719 0-.246094.109374-.246094.25 0 .136718.109375.246093.246094.246093h.992187c.140625 0 .25-.109375.25-.246093 0-.140626-.109375-.25-.25-.25zm1.984375 0c-.136719 0-.246094.109374-.246094.25 0 .136718.109375.246093.246094.246093h.992187c.140625 0 .25-.109375.25-.246093 0-.140626-.109375-.25-.25-.25zm1.984375 0c-.136719 0-.246094.109374-.246094.25 0 .136718.109375.246093.246094.246093h1.242187c.136719 0 .246094.109375.246094.25v1.734375c0 .136719.113281.25.25.25s.246094-.113281.246094-.25v-1.984375c0-.273437-.21875-.496093-.496094-.496093zm-14.632813 3.226562c-.140625 0-.25.109375-.25.246094v.992187c0 .136719.109375.25.25.25.136719 0 .246094-.113281.246094-.25v-.992187c0-.136719-.109375-.246094-.246094-.246094zm16.371094 0c-.136719 0-.25.109375-.25.246094v.992187c0 .136719.113281.25.25.25s.246094-.113281.246094-.25v-.992187c0-.136719-.109375-.246094-.246094-.246094zm-16.371094 1.984375c-.140625 0-.25.109375-.25.246094v.992187c0 .136719.109375.25.25.25.136719 0 .246094-.113281.246094-.25v-.992187c0-.136719-.109375-.246094-.246094-.246094zm16.371094 0c-.136719 0-.25.109375-.25.246094v.992187c0 .136719.113281.25.25.25s.246094-.113281.246094-.25v-.992187c0-.136719-.109375-.246094-.246094-.246094zm-16.371094 1.984375c-.140625 0-.25.109375-.25.246094v.992187c0 .140625.109375.25.25.25.136719 0 .246094-.109375.246094-.25v-.992187c0-.136719-.109375-.246094-.246094-.246094zm16.371094 0c-.136719 0-.25.109375-.25.246094v.992187c0 .140625.113281.25.25.25s.246094-.109375.246094-.25v-.992187c0-.136719-.109375-.246094-.246094-.246094zm-16.371094 1.984375c-.140625 0-.25.109375-.25.246094v.992187c0 .140625.109375.25.25.25.136719 0 .246094-.109375.246094-.25v-.992187c0-.136719-.109375-.246094-.246094-.246094zm16.371094 0c-.136719 0-.25.109375-.25.246094v.992187c0 .140625.113281.25.25.25s.246094-.109375.246094-.25v-.992187c0-.136719-.109375-.246094-.246094-.246094zm-16.371094 1.984375c-.140625 0-.25.109375-.25.246094v1.984375c0 .277343.222656.496093.496094.496093h1.488281c.136719 0 .25-.109374.25-.246093s-.113281-.25-.25-.25h-1.238281c-.140625 0-.25-.109375-.25-.246094v-1.738281c0-.136719-.109375-.246094-.246094-.246094zm16.371094 0c-.136719 0-.25.109375-.25.246094v1.738281c0 .136719-.109375.246094-.246094.246094h-1.238281s0 0-.003906 0c-.136719 0-.246094.113281-.246094.25s.109375.246093.246094.246093h1.488281c.277344 0 .496094-.21875.496094-.496093v-1.984375c0-.136719-.109375-.246094-.246094-.246094zm-13.644531 2.230469c-.136719 0-.246094.113281-.246094.25s.109375.246093.246094.246093h.992187c.136719 0 .25-.109374.25-.246093s-.113281-.25-.25-.25zm1.984375 0c-.136719 0-.246094.113281-.246094.25s.109375.246093.246094.246093h.992187c.136719 0 .25-.109374.25-.246093s-.113281-.25-.25-.25zm1.984375 0c-.136719 0-.246094.113281-.246094.25s.109375.246093.246094.246093h.992187c.136719 0 .25-.109374.25-.246093s-.113281-.25-.25-.25h-.988281c-.003906 0-.003906 0-.003906 0zm1.984375 0c-.136719 0-.246094.113281-.246094.25s.109375.246093.246094.246093h.992187c.140625 0 .25-.109374.25-.246093s-.109375-.25-.25-.25h-.988281c-.003906 0-.003906 0-.003906 0zm1.984375 0c-.136719 0-.246094.113281-.246094.25s.109375.246093.246094.246093h.992187c.140625 0 .25-.109374.25-.246093s-.109375-.25-.25-.25h-.988281zm1.984375 0c-.136719 0-.246094.113281-.246094.25s.109375.246093.246094.246093h.992187c.140625 0 .25-.109374.25-.246093s-.109375-.25-.25-.25h-.988281zm0 0" fill="#fff" fill-opacity=".529412"/></svg>

<?xml version="1.0" encoding="UTF-8"?>
<svg xmlns="http://www.w3.org/2000/svg" xmlns:xlink="http://www.w3.org/1999/xlink" width="24px" height="24px" viewBox="0 0 24 24" version="1.1">
<defs>
<linearGradient id="linear0" gradientUnits="userSpaceOnUse" x1="254" y1="233.5" x2="254" y2="254.666672" gradientTransform="matrix(0.0468795,0,0,0.0468795,-0.0000028613,10.079087)">
<stop offset="0" style="stop-color:rgb(0%,0%,0%);stop-opacity:0.27451;"/>
<stop offset="1" style="stop-color:rgb(0%,0%,0%);stop-opacity:0;"/>
</linearGradient>
<radialGradient id="radial0" gradientUnits="userSpaceOnUse" cx="450.908936" cy="189.579361" fx="450.908936" fy="189.579361" r="21.166656" gradientTransform="matrix(0.000000130628,-0.0585994,-0.105479,-0.0000000761539,40.090268,47.696498)">
<stop offset="0" style="stop-color:rgb(0%,0%,0%);stop-opacity:0.313726;"/>
<stop offset="0.222222" style="stop-color:rgb(0%,0%,0%);stop-opacity:0.27451;"/>
<stop offset="1" style="stop-color:rgb(0%,0%,0%);stop-opacity:0;"/>
</radialGradient>
<radialGradient id="radial1" gradientUnits="userSpaceOnUse" cx="450.908936" cy="189.579361" fx="450.908936" fy="189.579361" r="21.166656" gradientTransform="matrix(-0.000000130628,0.0585994,0.105479,0.0000000761539,-16.275496,-5.645611)">
<stop offset="0" style="stop-color:rgb(0%,0%,0%);stop-opacity:0.313726;"/>
<stop offset="0.222222" style="stop-color:rgb(0%,0%,0%);stop-opacity:0.27451;"/>
<stop offset="1" style="stop-color:rgb(0%,0%,0%);stop-opacity:0;"/>
</radialGradient>
<radialGradient id="radial2" gradientUnits="userSpaceOnUse" cx="450.908936" cy="189.579361" fx="450.908936" fy="189.579361" r="21.166656" gradientTransform="matrix(-0.000000130628,-0.0585994,0.105479,-0.0000000761539,-16.275496,47.696498)">
<stop offset="0" style="stop-color:rgb(0%,0%,0%);stop-opacity:0.313726;"/>
<stop offset="0.222222" style="stop-color:rgb(0%,0%,0%);stop-opacity:0.27451;"/>
<stop offset="1" style="stop-color:rgb(0%,0%,0%);stop-opacity:0;"/>
</radialGradient>
<radialGradient id="radial3" gradientUnits="userSpaceOnUse" cx="450.908936" cy="189.579361" fx="450.908936" fy="189.579361" r="21.166656" gradientTransform="matrix(0.000000130628,0.0585994,-0.105479,0.0000000761539,40.090267,-5.645611)">
<stop offset="0" style="stop-color:rgb(0%,0%,0%);stop-opacity:0.313726;"/>
<stop offset="0.222222" style="stop-color:rgb(0%,0%,0%);stop-opacity:0.27451;"/>
<stop offset="1" style="stop-color:rgb(0%,0%,0%);stop-opacity:0;"/>
</radialGradient>
<linearGradient id="linear1" gradientUnits="userSpaceOnUse" x1="306.916656" y1="-25.791676" x2="305.954559" y2="-135.329163" gradientTransform="matrix(0.0565122,0,0,0.163059,-4.39051,25.231011)">
<stop offset="0" style="stop-color:rgb(36.078432%,41.960785%,75.294119%);stop-opacity:1;"/>
<stop offset="1" style="stop-color:rgb(47.450981%,52.549022%,79.607844%);stop-opacity:1;"/>
</linearGradient>
<linearGradient id="linear2" gradientUnits="userSpaceOnUse" x1="960" y1="1295.118164" x2="960" y2="255.118118" gradientTransform="matrix(0.0156356,0,0,0.0156356,-2.964271,0.933326)">
<stop offset="0" style="stop-color:rgb(25.882354%,25.882354%,25.882354%);stop-opacity:1;"/>
<stop offset="1" style="stop-color:rgb(38.039216%,38.039216%,38.039216%);stop-opacity:1;"/>
</linearGradient>
<linearGradient id="linear3" gradientUnits="userSpaceOnUse" x1="306.916656" y1="-25.791676" x2="305.954559" y2="-135.329163" gradientTransform="matrix(0.0565122,0,0,0.163059,-4.39051,25.23101)">
<stop offset="0" style="stop-color:rgb(99.215686%,99.215686%,99.215686%);stop-opacity:0.235294;"/>
<stop offset="1" style="stop-color:rgb(100%,100%,100%);stop-opacity:0.196078;"/>
</linearGradient>
<linearGradient id="linear4" gradientUnits="userSpaceOnUse" x1="301.625" y1="-84" x2="301.625" y2="-136.916672" gradientTransform="matrix(0.0590952,0,0,0.0590952,-2.338849,15.185382)">
<stop offset="0" style="stop-color:rgb(100%,65.490198%,14.901961%);stop-opacity:1;"/>
<stop offset="1" style="stop-color:rgb(100%,71.764708%,30.19608%);stop-opacity:1;"/>
</linearGradient>
<linearGradient id="linear5" gradientUnits="userSpaceOnUse" x1="960" y1="1295.118164" x2="960" y2="255.118118" gradientTransform="matrix(0.0156356,0,0,0.0156356,-2.964271,0.933326)">
<stop offset="0" style="stop-color:rgb(56.470591%,64.313728%,68.235296%);stop-opacity:1;"/>
<stop offset="1" style="stop-color:rgb(69.01961%,74.509805%,77.254903%);stop-opacity:1;"/>
</linearGradient>
</defs>
<g id="surface1">
<path style=" stroke:none;fill-rule:nonzero;fill:url(#linear0);" d="M 3.472656 21.027344 L 20.339844 21.027344 L 20.339844 22.019531 L 3.472656 22.019531 Z M 3.472656 21.027344 "/>
<path style=" stroke:none;fill-rule:nonzero;fill:url(#radial0);" d="M 20.339844 21.027344 L 22.328125 21.027344 L 22.328125 20.03125 L 20.339844 20.03125 Z M 20.339844 21.027344 "/>
<path style=" stroke:none;fill-rule:nonzero;fill:url(#radial1);" d="M 3.472656 21.027344 L 1.488281 21.027344 L 1.488281 22.019531 L 3.472656 22.019531 Z M 3.472656 21.027344 "/>
<path style=" stroke:none;fill-rule:nonzero;fill:url(#radial2);" d="M 3.472656 21.027344 L 1.488281 21.027344 L 1.488281 20.03125 L 3.472656 20.03125 Z M 3.472656 21.027344 "/>
<path style=" stroke:none;fill-rule:nonzero;fill:url(#radial3);" d="M 20.339844 21.027344 L 22.328125 21.027344 L 22.328125 22.019531 L 20.339844 22.019531 Z M 20.339844 21.027344 "/>
<path style=" stroke:none;fill-rule:nonzero;fill:url(#linear1);" d="M 2.480469 3.164062 L 21.335938 3.164062 C 21.882812 3.164062 22.328125 3.609375 22.328125 4.15625 L 22.328125 20.03125 C 22.328125 20.582031 21.882812 21.027344 21.335938 21.027344 L 2.480469 21.027344 C 1.933594 21.027344 1.488281 20.582031 1.488281 20.03125 L 1.488281 4.15625 C 1.488281 3.609375 1.933594 3.164062 2.480469 3.164062 Z M 2.480469 3.164062 "/>
<path style=" stroke:none;fill-rule:nonzero;fill:url(#linear2);" d="M 7.035156 9.304688 C 6.871094 9.308594 6.71875 9.371094 6.605469 9.488281 L 1.488281 14.601562 L 1.488281 20.03125 C 1.488281 20.582031 1.929688 21.027344 2.480469 21.027344 L 21.335938 21.027344 C 21.882812 21.027344 22.328125 20.582031 22.328125 20.03125 L 22.328125 14.550781 L 18.710938 11.339844 C 18.453125 11.109375 18.058594 11.132812 17.832031 11.394531 L 13.890625 15.898438 L 7.480469 9.488281 C 7.363281 9.367188 7.199219 9.304688 7.035156 9.304688 Z M 7.035156 9.304688 "/>
<path style=" stroke:none;fill-rule:nonzero;fill:rgb(0%,0%,0%);fill-opacity:0.235294;" d="M 2.480469 21.035156 C 1.929688 21.035156 1.488281 20.59375 1.488281 20.042969 L 1.488281 19.785156 C 1.488281 20.335938 1.929688 20.777344 2.480469 20.777344 L 21.335938 20.777344 C 21.882812 20.777344 22.328125 20.335938 22.328125 19.785156 L 22.328125 20.042969 C 22.328125 20.59375 21.882812 21.035156 21.335938 21.035156 Z M 2.480469 21.035156 "/>
<path style=" stroke:none;fill-rule:nonzero;fill:url(#linear3);" d="M 2.480469 3.164062 C 1.929688 3.164062 1.488281 3.605469 1.488281 4.15625 L 1.488281 20.03125 C 1.488281 20.582031 1.929688 21.027344 2.480469 21.027344 L 21.335938 21.027344 C 21.882812 21.027344 22.328125 20.582031 22.328125 20.03125 L 22.328125 4.15625 C 22.328125 3.605469 21.882812 3.164062 21.335938 3.164062 Z M 5.953125 6.140625 L 17.859375 6.140625 C 18.410156 6.140625 18.851562 6.582031 18.851562 7.132812 L 18.851562 17.054688 C 18.851562 17.605469 18.410156 18.046875 17.859375 18.046875 L 5.953125 18.046875 C 5.402344 18.046875 4.960938 17.605469 4.960938 17.054688 L 4.960938 7.132812 C 4.960938 6.582031 5.402344 6.140625 5.953125 6.140625 Z M 5.953125 6.140625 "/>
<path style=" stroke:none;fill-rule:nonzero;fill:rgb(100%,100%,100%);fill-opacity:0.392157;" d="M 2.480469 3.222656 C 1.929688 3.222656 1.488281 3.664062 1.488281 4.214844 L 1.488281 4.332031 C 1.488281 3.78125 1.929688 3.339844 2.480469 3.339844 L 21.335938 3.339844 C 21.882812 3.339844 22.328125 3.78125 22.328125 4.332031 L 22.328125 4.214844 C 22.328125 3.664062 21.882812 3.222656 21.335938 3.222656 Z M 2.480469 3.222656 "/>
<path style=" stroke:none;fill-rule:nonzero;fill:rgb(12.941177%,12.941177%,12.941177%);fill-opacity:1;" d="M 2.480469 3.09375 C 1.894531 3.09375 1.417969 3.570312 1.417969 4.15625 L 1.417969 20.03125 C 1.417969 20.621094 1.894531 21.097656 2.480469 21.097656 L 21.335938 21.097656 C 21.921875 21.097656 22.398438 20.621094 22.398438 20.03125 L 22.398438 4.15625 C 22.398438 3.570312 21.921875 3.09375 21.335938 3.09375 Z M 2.480469 3.234375 L 21.335938 3.234375 C 21.847656 3.234375 22.257812 3.644531 22.257812 4.15625 L 22.257812 20.03125 C 22.257812 20.546875 21.847656 20.957031 21.335938 20.957031 L 2.480469 20.957031 C 1.96875 20.957031 1.558594 20.546875 1.558594 20.03125 L 1.558594 4.15625 C 1.558594 3.644531 1.96875 3.234375 2.480469 3.234375 Z M 2.480469 3.234375 "/>
<path style=" stroke:none;fill-rule:nonzero;fill:url(#linear4);" d="M 15.484375 7.09375 C 16.347656 7.09375 17.050781 7.792969 17.050781 8.65625 C 17.050781 9.519531 16.347656 10.222656 15.484375 10.222656 C 14.621094 10.222656 13.921875 9.519531 13.921875 8.65625 C 13.921875 7.792969 14.621094 7.09375 15.484375 7.09375 Z M 15.484375 7.09375 "/>
<path style=" stroke:none;fill-rule:nonzero;fill:url(#linear5);" d="M 7.035156 9.304688 C 6.871094 9.308594 6.71875 9.371094 6.605469 9.488281 L 4.164062 11.925781 L 4.855469 12.738281 C 5.167969 13.054688 6.074219 13.070312 7.042969 12.425781 C 7.664062 11.8125 8.40625 11.867188 8.917969 12.425781 C 9.648438 13.101562 10.304688 13.054688 11.046875 13.054688 L 7.480469 9.488281 C 7.363281 9.367188 7.199219 9.304688 7.035156 9.304688 Z M 18.292969 11.179688 C 18.121094 11.183594 17.953125 11.253906 17.832031 11.394531 L 16.382812 13.054688 L 16.425781 13.054688 C 16.53125 13.289062 16.582031 14.148438 17.050781 13.679688 C 17.851562 12.878906 17.988281 13.210938 18.300781 13.523438 C 18.769531 13.992188 19.082031 14.460938 19.550781 14.304688 C 20.332031 13.992188 20.46875 13.21875 20.121094 12.589844 L 18.710938 11.339844 C 18.589844 11.230469 18.441406 11.179688 18.292969 11.179688 Z M 18.292969 11.179688 "/>
<path style="fill:none;stroke-width:3;stroke-linecap:round;stroke-linejoin:round;stroke:rgb(12.941177%,12.941177%,12.941177%);stroke-opacity:1;stroke-miterlimit:4;" d="M 126.987873 -84.012509 L 380.96362 -84.012509 C 392.712498 -84.012509 402.128265 -74.513416 402.128265 -62.847863 L 402.128265 148.798592 C 402.128265 160.54747 392.712498 169.963238 380.96362 169.963238 L 126.987873 169.963238 C 115.322321 169.963238 105.823228 160.54747 105.823228 148.798592 L 105.823228 -62.847863 C 105.823228 -74.513416 115.322321 -84.012509 126.987873 -84.012509 Z M 126.987873 -84.012509 " transform="matrix(0.0468795,0,0,0.0468795,0,10.079087)"/>
</g>
</svg>
